src/assets/outline/Solana.svg

<svg width="24" height="24" viewBox="0 0 24 24"  xmlns="http://www.w3.org/2000/svg">
<path d="M18.5 8.25H3.99996C3.32996 8.25 2.72996 7.88 2.43996 7.28C2.13996 6.68 2.19993 5.98 2.59993 5.45L4.09993 3.45C4.42993 3.01 4.94996 2.75 5.49996 2.75H20C20.67 2.75 21.27 3.12 21.56 3.72C21.86 4.32 21.8 5.02 21.4 5.55L19.9 7.55C19.57 7.99 19.05 8.25 18.5 8.25ZM5.49996 4.25C5.41996 4.25 5.34994 4.29 5.29994 4.35L3.79994 6.35C3.71994 6.46 3.74999 6.56 3.77999 6.61C3.80999 6.66 3.86996 6.75 3.99996 6.75H18.5C18.58 6.75 18.65 6.71 18.7 6.65L20.2 4.65C20.28 4.54 20.2499 4.44 20.2199 4.39C20.1899 4.34 20.13 4.25 20 4.25H5.49996Z" />
<path d="M20 14.75H5.49997C4.94997 14.75 4.42994 14.49 4.09994 14.05L2.59994 12.05C2.19994 11.52 2.13996 10.81 2.42996 10.22C2.72996 9.62 3.32996 9.25 3.98996 9.25H18.49C19.04 9.25 19.56 9.51 19.89 9.95L21.39 11.95C21.79 12.48 21.85 13.19 21.56 13.78C21.27 14.38 20.67 14.75 20 14.75ZM3.99997 10.75C3.86997 10.75 3.8 10.84 3.78 10.89C3.75 10.94 3.71996 11.04 3.79996 11.15L5.29996 13.15C5.34996 13.21 5.41997 13.25 5.49997 13.25H20C20.13 13.25 20.1999 13.16 20.2199 13.11C20.2499 13.06 20.28 12.96 20.2 12.85L18.7 10.85C18.65 10.79 18.58 10.75 18.5 10.75H3.99997Z" />
<path d="M18.5 21.25H3.99996C3.32996 21.25 2.72996 20.88 2.43996 20.28C2.13996 19.68 2.19993 18.98 2.59993 18.45L4.09993 16.45C4.42993 16.01 4.94996 15.75 5.49996 15.75H20C20.67 15.75 21.27 16.12 21.56 16.72C21.86 17.32 21.8 18.02 21.4 18.55L19.9 20.55C19.57 20.99 19.05 21.25 18.5 21.25ZM5.49996 17.25C5.41996 17.25 5.34994 17.29 5.29994 17.35L3.79994 19.35C3.71994 19.46 3.74999 19.56 3.77999 19.61C3.80999 19.66 3.86996 19.75 3.99996 19.75H18.5C18.58 19.75 18.65 19.71 18.7 19.65L20.2 17.65C20.28 17.54 20.2499 17.44 20.2199 17.39C20.1899 17.34 20.13 17.25 20 17.25H5.49996Z" />
</svg>

<?xml version="1.0" encoding="UTF-8"?>
<svg width="24" height="24" viewBox="0 0 24 24" xmlns="http://www.w3.org/2000/svg">
 <path d="m18.5 8.25h-14.5c-0.67 0-1.27-0.37-1.56-0.97-0.3-0.6-0.24003-1.3 0.15997-1.83l1.5-2c0.33-0.44 0.85003-0.7 1.4-0.7h14.5c0.67 0 1.27 0.37 1.56 0.97 0.3 0.6 0.24 1.3-0.16 1.83l-1.5 2c-0.33 0.44-0.85 0.7-1.4 0.7zm-13-4c-0.08 0-0.15002 0.04-0.20002 0.1l-1.5 2c-0.08 0.11-0.04995 0.21-0.01995 0.26s0.08997 0.14 0.21997 0.14h14.5c0.08 0 0.15-0.04 0.2-0.1l1.5-2c0.08-0.11 0.0499-0.21 0.0199-0.26s-0.0899-0.14-0.2199-0.14h-14.5z"/>
 <path d="m20 14.75h-14.5c-0.55 0-1.07-0.26-1.4-0.7l-1.5-2c-0.4-0.53-0.45998-1.24-0.16998-1.83 0.3-0.6 0.9-0.97 1.56-0.97h14.5c0.55 0 1.07 0.26 1.4 0.7l1.5 2c0.4 0.53 0.46 1.24 0.17 1.83-0.29 0.6-0.89 0.97-1.56 0.97zm-16-4c-0.13 0-0.19997 0.09-0.21997 0.14-0.03 0.05-0.06004 0.15 0.01996 0.26l1.5 2c0.05 0.06 0.12001 0.1 0.20001 0.1h14.5c0.13 0 0.1999-0.09 0.2199-0.14 0.03-0.05 0.0601-0.15-0.0199-0.26l-1.5-2c-0.05-0.06-0.12-0.1-0.2-0.1h-14.5z"/>
 <path d="m18.5 21.25h-14.5c-0.67 0-1.27-0.37-1.56-0.97-0.3-0.6-0.24003-1.3 0.15997-1.83l1.5-2c0.33-0.44 0.85003-0.7 1.4-0.7h14.5c0.67 0 1.27 0.37 1.56 0.97 0.3 0.6 0.24 1.3-0.16 1.83l-1.5 2c-0.33 0.44-0.85 0.7-1.4 0.7zm-13-4c-0.08 0-0.15002 0.04-0.20002 0.1l-1.5 2c-0.08 0.11-0.04995 0.21-0.01995 0.26s0.08997 0.14 0.21997 0.14h14.5c0.08 0 0.15-0.04 0.2-0.1l1.5-2c0.08-0.11 0.0499-0.21 0.0199-0.26s-0.0899-0.14-0.2199-0.14h-14.5z"/>
</svg>
